X: 1
T:Chinese National Anthem
C:Communists
M:2/4
L:1/8
Q:240
K:D

G3/2 B/ d d | e2 d2 | B3/2 G/ (3ddd | B2 G2 | (3DDD (3DDD |

G2 z D | G3 G | G3/2 G/ D E/ F/ | G2 G2 | z B G A/B/ | d2 d2 | B3/2 B/ G3/2 B/ | d3/2 B/ A2 | A4 |


